svg/filled/exit.svg

<svg width="24" height="24" viewBox="0 0 24 24" fill="none" xmlns="http://www.w3.org/2000/svg">
<path fill-rule="evenodd" clip-rule="evenodd" d="M15.9908 7.82251C16.2897 7.5357 16.7644 7.54547 17.0512 7.84433L20.541 11.4807C20.8195 11.7709 20.8195 12.2291 20.541 12.5193L17.0512 16.1557C16.7644 16.4545 16.2897 16.4643 15.9908 16.1775C15.692 15.8907 15.6822 15.4159 15.969 15.1171L18.2404 12.7502L11.2727 12.7502C10.8585 12.7502 10.5227 12.4144 10.5227 12.0002C10.5227 11.586 10.8585 11.2502 11.2727 11.2502L18.2408 11.2502L15.969 8.88295C15.6822 8.58409 15.692 8.10932 15.9908 7.82251Z" fill="black"/>
<path fill-rule="evenodd" clip-rule="evenodd" d="M3.25 4C3.25 3.58579 3.58579 3.25 4 3.25H13.4545C13.8688 3.25 14.2045 3.58579 14.2045 4V7C14.2045 7.41421 13.8688 7.75 13.4545 7.75C13.0403 7.75 12.7045 7.41421 12.7045 7V4.75H4.75V19.25H12.7045V17C12.7045 16.5858 13.0403 16.25 13.4545 16.25C13.8688 16.25 14.2045 16.5858 14.2045 17V20C14.2045 20.4142 13.8688 20.75 13.4545 20.75H4C3.58579 20.75 3.25 20.4142 3.25 20V4Z" fill="black"/>
</svg>

<svg xmlns="http://www.w3.org/2000/svg" viewBox="0 0 24 24" fill="currentColor">
  <path fill-rule="evenodd" d="M15.99 7.823a.75.75 0 011.061.021l3.49 3.637a.75.75 0 010 1.038l-3.49 3.637a.75.75 0 01-1.082-1.039l2.271-2.367h-6.967a.75.75 0 010-1.5h6.968l-2.272-2.367a.75.75 0 01.022-1.06z" clip-rule="evenodd"/>
  <path fill-rule="evenodd" d="M3.25 4A.75.75 0 014 3.25h9.454a.75.75 0 01.75.75v3a.75.75 0 11-1.5 0V4.75H4.75v14.5h7.954V17a.75.75 0 011.5 0v3a.75.75 0 01-.75.75H4a.75.75 0 01-.75-.75V4z" clip-rule="evenodd"/>
</svg>
